X: 20614
T: SLOW MARCH
C: Copyright.-- Thompson Aimers.
%R: march
B: W. Hamilton "Universal Tune-Book" Vol. 2 Glasgow 1846 p.61 #4
S: http://s3-eu-west-1.amazonaws.com/itma.dl.printmaterial/book_pdfs/hamiltonvol2web.pdf
Z: 2016 John Chambers <jc:trillian.mit.edu>
M: C|
L: 1/8
K: G
% - - - - - - - - - - - - - - - - - - - - - - - - -
|:!f!\
g4 d3B | G2G>G G.B.c.d !p!|\
e2e>e g2(fe) | (e4 d).d.g.b !f!|\
g4 d3B | G2G>G G2dd |\
f2dd a2f2 | g2g>g g2z2 :|
|:\
(af).d.d "_>"b3a | gB-Bc d2g2 |\
(af).d.d b3a | gdBG d3z !p!|\
B2B>B d2g2 | d2dg b3g |\
aaaa ffff | g2g>g g2z2 :|
% - - - - - - - - - - - - - - - - - - - - - - - - -

%%sep 1 1 500
%%sep 1 1 500

